X:12
T: Ritter und Magd
N: Q0055K
O: Mitteleuropa, Deutschland (BRD) , nordwest - deutsch ?
R: Ballade, Betrug, Schwangerschaft, Tod, Selbstmord, Herr und Magd
M: 4/4
L: 1/8
K: C
CE | G2G2GAFD | C2E2E2
E2 | D3EF2G2 | F2E2z2
G2 | G3Ec3B | B2A2A2
A2 | G3ce2d2 | d2c2z2

@@@ Tune index: 888
